X:1
T:Steer Straight to the Light-House
T:Steer Straight to the Light-House
T:T. W. Dennington
T:T. W. Dennington, 1895
T:Public Domain Courtesy of the Cyber Hymnal™
T:Public Domain Courtesy of the Cyber Hymnal™
C:T. W. Dennington
Z:Public Domain
Z:Courtesy of the Cyber Hymnal™
%%score ( 1 2 ) ( 3 4 )
L:1/8
Q:1/4=95
M:6/8
K:G
V:1 treble 
V:2 treble 
V:3 bass 
V:4 bass 
V:1
 [DG] | [GB]>[Gc][GB] [GB][DA][DG] | [DG] [DF]3 z [FA] | [GB]>[GA]G [FA][GB][Ac] | %4
w: 1.~Say,|where are you go- ing, my|bro- ther, Up-|on the broad o- cean of|
w: 2.~Be|sure that the Sav- ior is|with thee Wher-|ev- er thy life boat may|
w: 3.~Look|not on the lamps that burn|dim- ly, But|look to the light of God’s|
 [GB]4 z [GB]/[Gc]/ | [Gd]>[Gc][GB] G[FA][=FB] | [Ec] [CE]3 z [Ec] | %7
w: time? Are you|bound for the land of the|bless- èd, A|
w: go; Should you|take your life jour- ney with-|out Him, You’ll|
w: love; Lo- ok|not on the wrecks by the|sea- shore, But|
 [DB]>[CA][B,G] [B,D]!fermata![DB][CA] | [B,G]4 z ||"^Refrain" [GB] | [Gd]>[Gd][Gd] [Gd][Gc][GB] | %11
w: home in fair Ca- naan’s bright|clime?|||
w: sink ’neath the bil- lows of|woe.|Steer|straight to the light- house, my|
w: look to the light- house a-|bove.|||
 [Fd] [Fc]3 z [Fc] | [GB][Gd][GB] [Ac][GB][FA] | [GB]4 z [GB] | [Gd]>[Gc][GB] G[FA][=FB] | %15
w: ||||
w: bro- ther, There’s|dan- ger up- on the dark|wave; Ask|Je- sus to keep and to|
w: ||||
 [Ec] [CE]3 z [Ec] | [DB]>[CA][B,G] [B,D][DB][CA] | [B,G]3- [B,G]2 |] %18
w: |||
w: guide you. He’s|a- ble and will- ing to|save. *|
w: |||
V:2
 x | x6 | x6 | x2 G x3 | x6 | x3 G x2 | x6 | x6 | x5 || x | x6 | x6 | x6 | x6 | x3 G x2 | x6 | x6 | %17
 x5 |] %18
V:3
 [G,B,] | [G,D]>[G,E][G,D] [G,D][G,C][G,B,] | [D,B,] [D,A,]3 z [D,D] | %3
 [G,D]>[G,D][G,D] [B,,D][B,,D][B,,D] | [G,D]4 z G,/G,/ | [G,B,]>[G,A,]G, [G,B,]G,G, | %6
 [C,G,] [C,G,]3 z [C,G,] | [D,G,]>[D,G,][D,G,] [D,G,]!fermata![D,G,][D,F,] | [G,,G,]4 z || [G,D] | %10
 [B,D]>[A,C][G,B,] [B,D][A,D][G,C] | [D,D] [D,D]3 z [D,D] | [G,D][G,B,][G,D] [D,D][D,D][D,D] | %13
 [G,D]4 z [G,D] | [G,B,]>[G,A,]G, [G,B,]G,G, | [C,G,] [C,G,]3 z [C,G,] | %16
 [D,G,]>[D,G,][D,G,] [D,G,][D,G,][D,F,] | [G,,G,]3- [G,,G,]2 |] %18
V:4
 x | x6 | x6 | x6 | x5 G,/G,/ | x2 G, G,G, x | x6 | x6 | x5 || x | x6 | x6 | x6 | x6 | %14
 x2 G, G,G, x | x6 | x6 | x5 |] %18

